X: 41572
T: Untitled
R: reel
M: 4/4
K: Dmixolydian
|A,A,DA EGFD|ECDG DEB,A,|G,G,DG, EG,DG,|B,DEG FD (3A,A,A,|
A,2 DA EGFD|ECDc EAGE|(3cBA Bd ABGF|(3GAB AG EFD2|
A,A,DA EGFD|ECDG DEB,A,|G,G,DG, EG,DG,|B,DEG FD (3A,DA,|
A,2 DA EGFD|ECDc EGAc|defg fdBG|FGAd Dzz2|

